images/arrow-short-right.svg

<svg xmlns="http://www.w3.org/2000/svg" width="16" height="16" fill="none" viewBox="0 0 16 16"><path fill="#2D3440" fill-rule="evenodd" d="M7.13526 2.8647c-.25969-.2597-.68075-.2597-.94045 0-.2597.25969-.2597.68075 0 .94045l4.20129 4.20128-4.20133 4.20127c-.25969.2597-.25969.6808 0 .9405.2597.2597.68076.2597.94046 0l4.66867-4.66871c.001-.00094.0019-.00188.0029-.00283.2597-.2597.2597-.68075 0-.94045L7.13526 2.8647Z" clip-rule="evenodd"/></svg>

<svg width="16" height="16" viewBox="0 0 16 16" fill="none" xmlns="http://www.w3.org/2000/svg">
<path fill-rule="evenodd" clip-rule="evenodd" d="M7.13526 2.8647C6.87557 2.605 6.45451 2.605 6.19481 2.8647C5.93511 3.12439 5.93511 3.54545 6.19481 3.80515L10.3961 8.00643L6.19477 12.2077C5.93508 12.4674 5.93508 12.8885 6.19477 13.1482C6.45447 13.4079 6.87553 13.4079 7.13523 13.1482L11.8039 8.47949C11.8049 8.47855 11.8058 8.47761 11.8068 8.47666C12.0665 8.21696 12.0665 7.79591 11.8068 7.53621L7.13526 2.8647Z" fill="#2D3440"/>
</svg>
